client/src/assets/icons/children-toy.svg

<svg width="58" height="58" viewBox="0 0 58 58" fill="none" xmlns="http://www.w3.org/2000/svg">
<path d="M38.0625 46.2308C36.0567 46.2308 34.4375 44.2008 34.4375 41.6874C34.4375 39.1983 36.0567 37.1683 38.0625 37.1683C40.0683 37.1683 41.6875 39.1983 41.6875 41.6874C41.6875 44.2008 40.0683 46.2308 38.0625 46.2308ZM29 27.1874C26.0033 27.1874 23.5625 25.1574 23.5625 22.6683C23.5625 20.1549 26.0033 18.1249 29 18.1249C31.9967 18.1249 34.4375 20.1549 34.4375 22.6683C34.4375 25.1574 31.9967 27.1874 29 27.1874ZM19.9375 46.2308C17.9317 46.2308 16.3125 44.2008 16.3125 41.6874C16.3125 39.1983 17.9317 37.1683 19.9375 37.1683C21.9433 37.1683 23.5625 39.1983 23.5625 41.6874C23.5625 44.2008 21.9433 46.2308 19.9375 46.2308ZM29 19.9374C29.9908 19.9374 30.8125 20.7591 30.8125 21.7499C30.8125 22.7408 29.9908 23.5624 29 23.5624C28.0092 23.5624 27.1875 22.7408 27.1875 21.7499C27.1875 20.7591 28.0092 19.9374 29 19.9374ZM45.3125 28.9999C44.5392 28.9999 43.79 29.1691 43.1133 29.4833C41.9533 28.0091 40.3825 26.7524 38.4975 25.7858C39.875 23.8524 40.6967 21.5083 40.6967 18.9708V18.8258C43.3308 18.2699 45.3125 15.9258 45.3125 13.0983C45.3125 9.88411 42.6783 7.24994 39.4642 7.24994C37.7967 7.24994 36.25 7.95077 35.235 9.06244C33.3712 7.87788 31.2084 7.24878 29 7.24878C26.7916 7.24878 24.6289 7.87788 22.765 9.06244C21.75 7.95077 20.2033 7.24994 18.5358 7.24994C15.3217 7.24994 12.6875 9.88411 12.6875 13.0983C12.6875 15.9016 14.6692 18.2458 17.2792 18.8258V18.9708C17.2792 21.5083 18.125 23.8766 19.4783 25.7858C17.6175 26.7524 16.0467 28.0091 14.8867 29.4833C14.0608 29.1112 13.1548 28.9524 12.2516 29.0213C11.3485 29.0902 10.477 29.3846 9.71714 29.8775C8.95725 30.3705 8.33321 31.0463 7.90218 31.8429C7.47115 32.6396 7.24691 33.5317 7.25 34.4374C7.25 37.4583 9.66667 39.8749 12.6875 39.8749H12.8325C12.7358 40.4549 12.6875 41.0833 12.6875 41.6874C12.6875 46.6899 15.9258 50.7499 19.9375 50.7499C22.3783 50.7499 24.5292 49.2274 25.8583 46.9074C26.8733 47.0524 27.9125 47.1249 29 47.1249C30.0875 47.1249 31.1267 47.0524 32.1417 46.9074C33.4708 49.2274 35.6217 50.7499 38.0625 50.7499C42.0742 50.7499 45.3125 46.6899 45.3125 41.6874C45.3125 41.0833 45.2642 40.4549 45.1675 39.8749H45.3125C48.3333 39.8749 50.75 37.4583 50.75 34.4374C50.75 31.4166 48.3333 28.9999 45.3125 28.9999Z" fill="#011034"/>
</svg>

<svg xmlns="http://www.w3.org/2000/svg" width="58" height="58" fill="none" viewBox="0 0 58 58">
  <path fill="#011034" d="M38.063 46.23c-2.006 0-3.626-2.03-3.626-4.543 0-2.489 1.62-4.519 3.626-4.519 2.005 0 3.624 2.03 3.624 4.52 0 2.513-1.619 4.543-3.624 4.543ZM29 27.188c-2.997 0-5.438-2.03-5.438-4.519 0-2.513 2.441-4.543 5.438-4.543s5.438 2.03 5.438 4.543c0 2.49-2.441 4.52-5.438 4.52Zm-9.063 19.044c-2.005 0-3.625-2.03-3.625-4.544 0-2.489 1.62-4.519 3.625-4.519 2.006 0 3.625 2.03 3.625 4.52 0 2.513-1.619 4.543-3.625 4.543ZM29 19.937c.99 0 1.813.822 1.813 1.813 0 .99-.822 1.812-1.813 1.812-.99 0-1.813-.821-1.813-1.812 0-.99.822-1.813 1.813-1.813ZM45.313 29a5.22 5.22 0 0 0-2.2.483c-1.16-1.474-2.73-2.73-4.615-3.697 1.377-1.934 2.199-4.278 2.199-6.815v-.145a5.84 5.84 0 0 0 4.615-5.728c0-3.214-2.634-5.848-5.848-5.848-1.667 0-3.214.7-4.229 1.812a11.624 11.624 0 0 0-12.47 0c-1.015-1.111-2.562-1.812-4.23-1.812-3.213 0-5.848 2.634-5.848 5.848 0 2.804 1.982 5.148 4.592 5.728v.145c0 2.537.846 4.906 2.2 6.815-1.861.966-3.432 2.223-4.592 3.697a5.412 5.412 0 0 0-7.637 4.954 5.415 5.415 0 0 0 5.438 5.438h.144c-.096.58-.145 1.208-.145 1.812 0 5.003 3.239 9.063 7.25 9.063 2.441 0 4.592-1.523 5.921-3.843a22.12 22.12 0 0 0 3.142.218 22.11 22.11 0 0 0 3.142-.218c1.329 2.32 3.48 3.843 5.92 3.843 4.012 0 7.25-4.06 7.25-9.063 0-.604-.048-1.232-.145-1.812h.145a5.415 5.415 0 0 0 5.438-5.438A5.415 5.415 0 0 0 45.312 29Z"/>
</svg>
